**kern	**kern	**dynam
*part1	*part1	*part1
*staff2	*staff1	*
*I"Piano	*	*
*clefF4	*clefG2	*
*k[f#c#g#d#a#]	*k[f#c#g#d#a#]	*
=1	=1	=1
*^	*^	*
4A#	2.FF#	4cc#	8cc#L	.
.	.	.	8f#	.
4G#	.	4b	8b	.
.	.	.	8f#	.
4A#	.	4cc#	8cc#	.
.	.	.	8f#J	.
=	=	=	=	=
4B	2.BB	4dd#	8dd#L	.
.	.	.	8f#	.
4F#	.	4b	8b	.
.	.	.	8f#	.
4d#	.	4ff#	8ff#	.
.	.	.	8f#J	.
=	=	=	=	=
4A#	2.FF#	4cc#	8cc#L	.
.	.	.	8f#	.
4G#	.	4b	8b	.
.	.	.	8f#	.
4A#	.	4cc#	8cc#	.
.	.	.	8f#J	.
=	=	=	=	=
4B	2.BB	4dd#	8dd#L	.
.	.	.	8f#	.
4F#	.	4b	8b	.
.	.	.	8f#	.
4d#	.	4ff#	8ff#	.
.	.	.	8f#J	.
=	=	=	=	=
4A#	2.FF#	4cc#	8cc#L	.
.	.	.	8f#	.
4G#	.	4b	8b	.
.	.	.	8f#	.
4A#	.	4cc#	8cc#	.
.	.	.	8f#J	.
=	=	=	=	=
4B	2.BB	4dd#	8dd#L	.
.	.	.	8f#	.
4F#	.	4b	8b	.
.	.	.	8f#	.
4d#	.	4ff#	8ff#	.
.	.	.	8f#J	.
*	*	*v	*v	*
=	=	=	=
(4BB	2.BB	4r	f
4F#	.	(8ff#L 8ddd#	.
.	.	8dd#J)	.
4B)	.	(8dd#L 8bb	.
.	.	8bJ)	.
*v	*v	*	*
=	=	=
*-	*-	*-
!!!system-decoration: {(s1,s2)}
